src/components/about/images/bcAbout.svg

<svg width="617" height="251" fill="none" xmlns="http://www.w3.org/2000/svg"><g opacity=".1" stroke="#333"><path d="M111.313 108.376h-.5v50.73c-28.172-.383-50.891-22.783-50.891-50.292 0-27.795 23.115-50.358 51.644-50.358 28.379 0 51.401 22.326 51.643 49.92h-51.896zM189.56 32.144c20.884 20.369 32.405 47.409 32.44 76.232h-10.328c-.072-53.763-44.749-97.502-99.796-97.826V.502c29.364.186 56.888 11.359 77.684 31.642zM32.94 184.868l-.001-.001C12.146 164.648.634 137.693.5 109.068H10.83c.277 53.635 45.07 97.199 100.047 97.395v10.048c-29.473-.094-57.11-11.33-77.937-31.643zM190.195 185.583c20.922-20.344 32.481-47.434 32.738-76.207h12.166v140.342H111.813v-32.209c29.621-.186 57.459-11.518 78.382-31.926z"/><path d="M192.762 109.438c-.132 20.97-8.544 40.644-23.768 55.493-15.346 14.968-35.724 23.189-57.491 23.189-21.767 0-42.145-8.221-57.49-23.189-15.346-14.966-23.77-34.836-23.77-56.055s8.424-41.088 23.769-56.055c15.229-14.792 35.411-23.06 56.865-23.187v10.049c-38.828.324-70.307 31.233-70.307 69.193 0 38.185 31.814 69.196 70.933 69.196 38.928 0 70.62-30.768 70.931-68.634h10.328zM263.253 219.116h25.256v12.27h-44.373V127.46h44.12v12.455h-25.503v31.182h20.061v12.332h-20.061v35.687h.5zM326.662 232.807c-7.855 0-13.882-1.472-18.263-4.421-4.398-2.96-7.433-7.005-9.171-12.09-1.751-5.184-2.631-11.115-2.631-17.923v-37.465c0-7.121.881-13.298 2.631-18.48 1.738-5.146 4.77-9.123 9.159-11.896 4.384-2.77 10.417-4.182 18.275-4.182 7.356 0 13.079 1.228 17.213 3.635 4.081 2.413 7.042 5.844 8.773 10.304 1.745 4.497 2.624 9.742 2.624 15.743v8.326h-17.858v-8.573c0-2.976-.127-5.653-.448-8.089-.326-2.485-1.183-4.509-2.67-6.025-1.53-1.561-4.036-2.31-7.444-2.31-3.407 0-6.037.749-7.694 2.429-1.605 1.568-2.657 3.706-3.114 6.38-.449 2.568-.64 5.499-.64 8.726v45.612c0 3.851.318 6.982.965 9.506.654 2.552 1.845 4.513 3.601 5.83 1.759 1.32 4.092 1.952 7.008 1.952 3.347 0 5.798-.751 7.329-2.445 1.483-1.579 2.333-3.723 2.721-6.313.385-2.566.512-5.371.512-8.468v-9.067h17.858v7.894c0 6.191-.817 11.625-2.502 16.374-1.672 4.71-4.512 8.324-8.657 11.041-4.259 2.646-10.039 3.995-17.577 3.995zM395.26 232.806c-7.542 0-13.514-1.35-17.899-4.061-4.396-2.717-7.553-6.578-9.478-11.663-1.934-5.114-2.878-11.161-2.878-18.216v-39.255c0-7.056.944-13.04 2.877-18.027 1.922-4.959 5.076-8.697 9.473-11.355 4.389-2.592 10.365-3.941 17.905-3.941 7.733 0 13.773 1.35 18.161 3.942 4.391 2.594 7.547 6.391 9.47 11.354 1.934 4.99 2.941 10.975 2.941 18.027v39.378c0 6.928-1.006 12.975-2.942 18.029-1.924 5.024-5.145 8.948-9.479 11.666-4.386 2.711-10.422 4.122-18.151 4.122zm0-13.134c3.339 0 5.896-.685 7.551-2.23 1.607-1.438 2.729-3.45 3.253-5.944.513-2.439.834-5.127.834-8.003v-48.328c0-2.99-.256-5.624-.837-8.018-.589-2.426-1.647-4.312-3.254-5.748-1.653-1.478-4.27-2.164-7.547-2.164-3.164 0-5.642.691-7.35 2.157-1.67 1.433-2.799 3.322-3.327 5.767-.514 2.379-.834 5.007-.834 8.006v48.328c0 2.868.256 5.557.77 8.003.523 2.485 1.578 4.505 3.26 5.951 1.713 1.535 4.262 2.223 7.481 2.223zM457.339 219.178h25.509v12.208h-44.689V127.46h18.68v91.718h.5zM527.062 207.605l-.072-.414h-19.57l-.074.412-4.292 23.783h-17.511l21.311-103.926h20.194l21.311 103.926H531.23l-4.168-23.781zm-17.818-12.217l-.098.583h15.798l-.096-.582-7.277-44.007-.987-.001-7.34 44.007zM574.734 183.929v47.457H556.18V127.46h25.256c7.24 0 13.322.86 18.257 2.505 4.899 1.633 8.599 4.466 11.127 8.435 2.526 3.967 3.845 9.356 3.845 16.335 0 4.229-.377 7.953-1.188 11.3-.808 3.334-2.108 6.104-3.955 8.447-1.834 2.265-4.414 4.069-7.7 5.339l-.428.165.128.441 14.812 51.021h-18.632l-12.936-47.65-.1-.369H574.734v.5zm21.148-18.755h0l.002-.006c.981-2.424 1.492-5.579 1.492-9.322 0-5.299-1.02-9.372-3.072-12.148-2.107-2.851-6.114-4.153-11.729-4.153h-7.651v32.225h.373v.5H581.436c3.839 0 6.955-.561 9.321-1.651 2.403-1.107 4.069-2.934 5.125-5.445z"/></g></svg>

<svg width="617" height="251" viewBox="0 0 617 251" fill="none" xmlns="http://www.w3.org/2000/svg">
<g opacity="0.1">
<path d="M111.313 108.376H110.813V108.876V159.106C82.6411 158.723 59.9219 136.323 59.9219 108.814C59.9219 81.019 83.0372 58.4561 111.566 58.4561C139.945 58.4561 162.967 80.7822 163.209 108.376H111.376H111.313Z" stroke="#333333"/>
<path d="M189.56 32.1444C210.444 52.5126 221.965 79.5527 222 108.376H211.672C211.6 54.6131 166.923 10.8744 111.876 10.5498V0.502107C141.24 0.688207 168.764 11.8607 189.56 32.1444Z" stroke="#333333"/>
<path d="M32.9394 184.868L32.9388 184.867C12.1459 164.648 0.6337 137.693 0.501157 109.068H10.8288C11.1056 162.703 55.8985 206.267 110.876 206.463V216.511C81.4026 216.417 53.7665 205.181 32.9394 184.868Z" stroke="#333333"/>
<path d="M190.195 185.583C211.117 165.239 222.676 138.149 222.933 109.376H235.099V249.718H111.813V217.509C141.434 217.323 169.272 205.991 190.195 185.583Z" stroke="#333333"/>
<path d="M192.762 109.438C192.63 130.408 184.218 150.082 168.994 164.931C153.648 179.899 133.27 188.12 111.503 188.12C89.7357 188.12 69.3583 179.899 54.0124 164.931C38.667 149.965 30.2427 130.095 30.2427 108.876C30.2427 87.6572 38.6668 67.7883 54.0119 52.8214C69.2407 38.0292 89.4234 29.7604 110.877 29.6338V39.6829C72.0495 40.0072 40.5702 70.9162 40.5702 108.876C40.5702 147.061 72.3836 178.072 111.503 178.072C150.431 178.072 182.123 147.304 182.434 109.438H192.762Z" stroke="#333333"/>
<path d="M263.253 219.116H288.509V231.386H244.136V127.46H288.256V139.915H263.253H262.753V140.415V170.597V171.097H263.253H282.814V183.429H263.253H262.753V183.929V218.616V219.116H263.253Z" stroke="#333333"/>
<path d="M326.662 232.807C318.807 232.807 312.78 231.335 308.399 228.386C304.001 225.426 300.966 221.381 299.228 216.296C297.477 211.112 296.597 205.181 296.597 198.373V160.908C296.597 153.787 297.478 147.61 299.228 142.428C300.966 137.282 303.998 133.305 308.387 130.532C312.771 127.762 318.804 126.35 326.662 126.35C334.018 126.35 339.741 127.578 343.875 129.985C347.956 132.398 350.917 135.829 352.648 140.289C354.393 144.786 355.272 150.031 355.272 156.032V164.358H337.414V155.785C337.414 152.809 337.287 150.132 336.966 147.696C336.64 145.211 335.783 143.187 334.296 141.671C332.766 140.11 330.26 139.361 326.852 139.361C323.445 139.361 320.815 140.11 319.158 141.79C317.553 143.358 316.501 145.496 316.044 148.17C315.595 150.738 315.404 153.669 315.404 156.896V202.508C315.404 206.359 315.722 209.49 316.369 212.014C317.023 214.566 318.214 216.527 319.97 217.844C321.729 219.164 324.062 219.796 326.978 219.796C330.325 219.796 332.776 219.045 334.307 217.351C335.79 215.772 336.64 213.628 337.028 211.038C337.413 208.472 337.54 205.667 337.54 202.57V193.503H355.398V201.397C355.398 207.588 354.581 213.022 352.896 217.771C351.224 222.481 348.384 226.095 344.239 228.812C339.98 231.458 334.2 232.807 326.662 232.807Z" stroke="#333333"/>
<path d="M395.26 232.806C387.718 232.806 381.746 231.456 377.361 228.745C372.965 226.028 369.808 222.167 367.883 217.082C365.949 211.968 365.005 205.921 365.005 198.866V159.611C365.005 152.555 365.949 146.571 367.882 141.584C369.804 136.625 372.958 132.887 377.355 130.229C381.744 127.637 387.72 126.288 395.26 126.288C402.993 126.288 409.033 127.638 413.421 130.23C417.812 132.824 420.968 136.621 422.891 141.584C424.825 146.574 425.832 152.559 425.832 159.611V198.989C425.832 205.917 424.826 211.964 422.89 217.018C420.966 222.042 417.745 225.966 413.411 228.684C409.025 231.395 402.989 232.806 395.26 232.806ZM395.26 219.672C398.599 219.672 401.156 218.987 402.811 217.442C404.418 216.004 405.54 213.992 406.064 211.498C406.577 209.059 406.898 206.371 406.898 203.495V155.167C406.898 152.177 406.642 149.543 406.061 147.149C405.472 144.723 404.414 142.837 402.807 141.401C401.154 139.923 398.537 139.237 395.26 139.237C392.096 139.237 389.618 139.928 387.91 141.394C386.24 142.827 385.111 144.716 384.583 147.161C384.069 149.54 383.749 152.168 383.749 155.167V203.495C383.749 206.363 384.005 209.052 384.519 211.498C385.042 213.983 386.097 216.003 387.779 217.449C389.492 218.984 392.041 219.672 395.26 219.672Z" stroke="#333333"/>
<path d="M457.339 219.178H482.848V231.386H438.159V127.46H456.839V218.678V219.178H457.339Z" stroke="#333333"/>
<path d="M527.062 207.605L526.99 207.191H526.57H507.838H507.42L507.346 207.603L503.054 231.386H485.543L506.854 127.46H527.048L548.359 231.386H531.23L527.062 207.605ZM509.244 195.388L509.146 195.971H509.737H524.355H524.944L524.848 195.389L517.571 151.382L516.584 151.381L509.244 195.388Z" stroke="#333333"/>
<path d="M574.734 183.929V231.386H556.18V127.46H581.436C588.676 127.46 594.758 128.32 599.693 129.965C604.592 131.598 608.292 134.431 610.82 138.4C613.346 142.367 614.665 147.756 614.665 154.735C614.665 158.964 614.288 162.688 613.477 166.035C612.669 169.369 611.369 172.139 609.522 174.482C607.688 176.747 605.108 178.551 601.822 179.821L601.394 179.986L601.522 180.427L616.334 231.448H597.702L584.766 183.798L584.666 183.429H584.283H575.234H574.734V183.929ZM595.882 165.174L595.882 165.174L595.884 165.168C596.865 162.744 597.376 159.589 597.376 155.846C597.376 150.547 596.356 146.474 594.304 143.698C592.197 140.847 588.19 139.545 582.575 139.545H575.424H574.924V140.045V171.77H575.297V172.27H575.424H575.924H581.436C585.275 172.27 588.391 171.709 590.757 170.619C593.16 169.512 594.826 167.685 595.882 165.174Z" stroke="#333333"/>
</g>
</svg>
